app/assets/images/garbage.svg

<svg xmlns="http://www.w3.org/2000/svg" viewBox="0 0 100 120" enable-background="new 0 0 100 120"><path d="M25 32.2v73.6h1c2.7 0 5.4-.3 8.1-.2.8 0 1-.3 1-1.1v-71.2c0-.4 0-.8-.1-1.1h-10zm74.6-8c-1.4-6.7-7.2-11.6-14.1-11.8-2.8-.1-5.5 0-8.2 0h-1c0-1-.1-2-.2-3-.6-4.6-4.2-8.3-8.9-9.1-1.4-.2-2.7-.3-4-.3h-26.4c-1.3 0-2.6.1-3.9.4-4.7.7-8.3 4.4-8.9 9.1-.1 1-.2 2-.2 3h-1c-2.8 0-5.5-.1-8.2 0-6.9.1-12.8 5-14.2 11.7-.2 1-.3 2-.4 3h5v1.2c0 26.7 0 49.6.1 76.4 0 .8 0 1.6.1 2.3 1 7.5 7.6 13.1 15.3 12.9h59c7.7.2 14.3-5.3 15.2-12.9.1-.8.2-1.5.2-2.3.1-26.6.1-49.7.1-76.4v-1.2h5c-.2-1-.2-2.1-.4-3zm-68.2-13.8c.2-1.6 1.6-2.8 3.2-2.8.7-.1 1.5-.2 2.2-.2h26.4c.7 0 1.5.1 2.2.2 1.6.1 2.9 1.3 3.2 2.8.1.7.1 1.3 0 2h-37.2c-.1-.7 0-1.3 0-2zm53.5 94.8c0 .9-.3 1.7-.7 2.5-1 1.9-2.8 2.5-4.9 2.5h-58.6c-2.1 0-3.8-.6-4.9-2.5-.4-.8-.7-1.6-.7-2.5v-77.1c0-.7.2-.9.9-.9h68c.4-.1.8.1.9.5v77.5zm-20-72.1v71.2c0 .8.2 1.2 1 1.2l8.1.2h1v-73.5h-10c-.1.3-.1.6-.1.9zm-19.9 72.7h10v-73.6h-10v73.6z"/></svg>

<?xml version="1.0" encoding="utf-8"?>
<!-- Generator: Adobe Illustrator 19.2.1, SVG Export Plug-In . SVG Version: 6.00 Build 0)  -->
<svg version="1.1" id="Capa_1" xmlns="http://www.w3.org/2000/svg" xmlns:xlink="http://www.w3.org/1999/xlink" x="0px" y="0px"
	 viewBox="0 0 100 120" style="enable-background:new 0 0 100 120;" xml:space="preserve">
<style type="text/css">
	.st0{fill:#643200;}
</style>
<path class="st0" d="M25,32.2v73.6h1c2.7,0,5.4-0.3,8.1-0.2c0.8,0,1-0.3,1-1.1V33.3c0-0.4,0-0.8-0.1-1.1L25,32.2L25,32.2z
	 M99.6,24.2c-1.4-6.7-7.2-11.6-14.1-11.8c-2.8-0.1-5.5,0-8.2,0h-1c0-1-0.1-2-0.2-3c-0.6-4.6-4.2-8.3-8.9-9.1c-1.4-0.2-2.7-0.3-4-0.3
	H36.8c-1.3,0-2.6,0.1-3.9,0.4c-4.7,0.7-8.3,4.4-8.9,9.1c-0.1,1-0.2,2-0.2,3h-1c-2.8,0-5.5-0.1-8.2,0c-6.9,0.1-12.8,5-14.2,11.7
	c-0.2,1-0.3,2-0.4,3h5v1.2C5,55.1,5,78,5.1,104.8c0,0.8,0,1.6,0.1,2.3c1,7.5,7.6,13.1,15.3,12.9h59c7.7,0.2,14.3-5.3,15.2-12.9
	c0.1-0.8,0.2-1.5,0.2-2.3C95,78.2,95,55.1,95,28.4v-1.2h5C99.8,26.2,99.8,25.1,99.6,24.2z M31.4,10.4c0.2-1.6,1.6-2.8,3.2-2.8
	c0.7-0.1,1.5-0.2,2.2-0.2h26.4c0.7,0,1.5,0.1,2.2,0.2c1.6,0.1,2.9,1.3,3.2,2.8c0.1,0.7,0.1,1.3,0,2H31.4
	C31.3,11.7,31.4,11.1,31.4,10.4z M84.9,105.2c0,0.9-0.3,1.7-0.7,2.5c-1,1.9-2.8,2.5-4.9,2.5H20.7c-2.1,0-3.8-0.6-4.9-2.5
	c-0.4-0.8-0.7-1.6-0.7-2.5V28.1c0-0.7,0.2-0.9,0.9-0.9h68c0.4-0.1,0.8,0.1,0.9,0.5C84.9,27.7,84.9,105.2,84.9,105.2z M64.9,33.1
	v71.2c0,0.8,0.2,1.2,1,1.2l8.1,0.2h1V32.2H65C64.9,32.5,64.9,32.8,64.9,33.1z M45,105.8h10V32.2H45V105.8z"/>
</svg>
